X:177
M:4/4
L:1/8
K:G
| eaag baag | eggg egg2 | eaag baag | e2dB BAA2 | 
eaag baag | edef g2ga | bgaf gfed | B/c/d ef g2g2 || 

